svg/u1f527.svg

<svg viewBox="0 0 128 128" xmlns="http://www.w3.org/2000/svg">
  <g>
    <path d="M113.88,94.05c-1.36-1.16-3.17-2.53-5.46-4.26c-8.49-6.44-24.2-18.37-50.96-45.03 c2.06-3.75,3.23-7.95,3.36-12.37c0.24-7.56-2.69-14.97-8.04-20.32c-8.84-8.84-22.55-10.61-33.34-4.3 c-0.49,0.29-0.79,0.82-0.79,1.39c0,0.57,0.31,1.1,0.8,1.38l16.61,9.59c1.64,8.29-3.12,16.57-11.18,19.35L8.22,29.84 c-0.49-0.28-1.1-0.29-1.59,0c-0.49,0.28-0.8,0.8-0.81,1.37c-0.09,8.13,3.4,15.85,9.58,21.18c5.12,4.42,11.52,6.62,17.92,6.62 c3.59,0,7.17-0.72,10.54-2.11c24.21,24.32,35.66,41.18,42.52,51.29c2.4,3.54,4.14,6.1,5.63,7.77c4.56,5.1,9.52,7.86,14.36,7.99 c0.12,0,5.33,0.8,10.83-4.7c3.46-3.46,5.14-7.25,4.98-11.24C121.98,103.27,119.19,98.57,113.88,94.05z M104.81,112.97 c-3.39,0-6.15-2.75-6.15-6.15s2.75-6.15,6.15-6.15s6.15,2.75,6.15,6.15S108.2,112.97,104.81,112.97z" fill="#82AEC0"/>
    <g>
      <path d="M61.13,48.38c-1.2-1.18-2.42-2.39-3.67-3.63c2.06-3.75,3.23-7.95,3.36-12.37 c0.09-3-0.32-5.96-1.17-8.79c-0.76-1.25-1.96-2.59-2.72-1.78c0.31,9.82-2.54,20.05-9.37,27.11c-3.39,3.5-7.8,6.03-12.53,7.23 c-2.34,0.59-4.76,0.85-7.17,0.72c-1.41-0.08-5.39-1.55-6.19-0.47c0,0,0,0.03,0,0.05c3.67,1.71,7.65,2.56,11.63,2.56 c3.59,0,7.17-0.72,10.54-2.11c7.83,7.87,14.32,14.95,19.76,21.28c-2.72-5.14-10.74-14.63-12.88-18.25 c-0.48-0.82-1.16-2.92,0.37-4.81C53.26,52.47,57.67,50.01,61.13,48.38z" fill="#2F7889"/>
      <path d="M70.01,66.91c0,0,3.73-1.64,9.25,2.83c5.52,4.48,26.76,22.54,28.55,24.93 c1.79,2.39-5.42-0.04-7.96-0.48C97.32,93.74,70.01,66.91,70.01,66.91z" fill="#B9E4EA"/>
      <path d="M43.32,12c3.08,2.21,5.84,4.82,8.73,7.28c0.74,0.63,1.83,1.27,2.6,0.66 c0.83-0.66,0.31-1.98-0.32-2.84c-5.46-7.5-15.65-12.86-25.5-10.73C34.03,8.04,38.7,8.7,43.32,12z" fill="#B9E4EA"/>
      <path d="M18.83,37.74c1.21,0.72,2.89,1.7,3.86,1.97c1.17,0.32,4.46-0.95,5.42-1.72 c-3.94-2.57-8.34-5.45-12.29-8.02c-0.45-0.29-0.9-0.59-1.41-0.75c-0.62-0.19-1.28-0.18-1.92-0.14c-0.9,0.04-5.3-0.11-5.81,0.67 c-0.52,0.79,1.31,1.54,1.9,1.9C11.99,33.69,15.42,35.7,18.83,37.74z" fill="#2F7889"/>
    </g>
  </g>
</svg>

<svg viewBox="0 0 128 128" xmlns="http://www.w3.org/2000/svg">
  <defs/>
  <path d="M113.88,94.05 C112.52,92.89 110.71,91.52 108.42,89.79 C99.93,83.35 84.22,71.42 57.46,44.76 C59.52,41.01 60.69,36.81 60.82,32.39 C61.06,24.83 58.13,17.42 52.78,12.07 C43.94,3.23 30.23,1.46 19.44,7.77 C18.95,8.06 18.65,8.59 18.65,9.16 C18.65,9.73 18.96,10.26 19.45,10.54 L36.06,20.13 C37.7,28.42 32.94,36.7 24.88,39.48 L8.22,29.84 C7.73,29.56 7.12,29.55 6.63,29.84 C6.14,30.12 5.83,30.64 5.82,31.21 C5.73,39.34 9.22,47.06 15.4,52.39 C20.52,56.81 26.92,59.01 33.32,59.01 C36.91,59.01 40.49,58.29 43.86,56.9 C68.07,81.22 79.52,98.08 86.38,108.19 C88.78,111.73 90.52,114.29 92.01,115.96 C96.57,121.06 101.53,123.82 106.37,123.95 C106.49,123.95 111.7,124.75 117.2,119.25 C120.66,115.79 122.34,112 122.18,108.01 C121.98,103.27 119.19,98.57 113.88,94.05 Z M104.81,112.97 C101.42,112.97 98.66,110.22 98.66,106.82 C98.66,103.42 101.41,100.67 104.81,100.67 C108.21,100.67 110.96,103.42 110.96,106.82 C110.96,110.22 108.2,112.97 104.81,112.97 Z" fill="#82AEC0"/>
  <path d="M61.13,48.38 C59.93,47.2 58.71,45.99 57.46,44.75 C59.52,41 60.69,36.8 60.82,32.38 C60.91,29.38 60.5,26.42 59.65,23.59 C58.89,22.34 57.69,21 56.93,21.81 C57.24,31.63 54.39,41.86 47.56,48.92 C44.17,52.42 39.76,54.95 35.03,56.15 C32.69,56.74 30.27,57 27.86,56.87 C26.45,56.79 22.47,55.32 21.67,56.4 C21.67,56.4 21.67,56.43 21.67,56.45 C25.34,58.16 29.32,59.01 33.3,59.01 C36.89,59.01 40.47,58.29 43.84,56.9 C51.67,64.77 58.16,71.85 63.6,78.18 C60.88,73.04 52.86,63.55 50.72,59.93 C50.24,59.11 49.56,57.01 51.09,55.12 C53.26,52.47 57.67,50.01 61.13,48.38 Z" fill="#2F7889"/>
  <path d="M70.01,66.91 C70.01,66.91 73.74,65.27 79.26,69.74 C84.78,74.22 106.02,92.28 107.81,94.67 C109.6,97.06 102.39,94.63 99.85,94.19 C97.32,93.74 70.01,66.91 70.01,66.91 Z" fill="#B9E4EA"/>
  <path d="M43.32,12 C46.4,14.21 49.16,16.82 52.05,19.28 C52.79,19.91 53.88,20.55 54.65,19.94 C55.48,19.28 54.96,17.96 54.33,17.1 C48.87,9.6 38.68,4.24 28.83,6.37 C34.03,8.04 38.7,8.7 43.32,12 Z" fill="#B9E4EA"/>
  <path d="M18.83,37.74 C20.04,38.46 21.72,39.44 22.69,39.71 C23.86,40.03 27.15,38.76 28.11,37.99 C24.17,35.42 19.77,32.54 15.82,29.97 C15.37,29.68 14.92,29.38 14.41,29.22 C13.79,29.03 13.13,29.04 12.49,29.08 C11.59,29.12 7.19,28.97 6.68,29.75 C6.16,30.54 7.99,31.29 8.58,31.65 C11.99,33.69 15.42,35.7 18.83,37.74 Z" fill="#2F7889"/>
</svg>
